X:141
T:Maid of Mount Cisco
M:4/4
L:1/8
R:Reel
K:ADor
|:EA~A2 BGAG|EA~A2 BGAG|EG~G2 AGFG|EG~G2 EGDG|
|EA~A2 BGAG|EA~A2 BABd|edef gage|1dBGB A2 AG:|2dBGB A2dB|
|:A3B dBAB|G2BG DGBG|A3B dGBd|efge dBGB|
|A3B dBAB|G2BG DGBG|A2AB dGBd|efge d2Bd:|
|:eaag bgag|egdB GABd|eaag a3b|gede g2eg|
|a3f g3e|dedB GABd|eAAc efge|1dBGB A2 Bd:|2dBGB A2AG|]
